X:1
T:Herr, deine Güte reicht so weit
T:Eduard Grell
T:Herr, deine Güte reicht so weit
T:CPDL - Creative Commons Attribution Non Commercial 3.0
T:CPDL - Creative Commons Attribution Non Commercial 3.0
T:CPDL - Creative Commons Attribution Non Commercial 3.0
C:Eduard Grell
Z:CPDL - Creative Commons Attribution Non Commercial 3.0
%%score [ ( 1 2 ) 3 4 ]
L:1/8
Q:1/4=80
M:3/4
K:D
V:1 treble nm="Sopran\nAlt"
V:2 treble 
V:3 treble-8 nm="Tenor"
V:4 bass nm="Bass"
V:1
"^Mäßig langsam""^Einzelne" F2 F2 F2 | A4 F2 | (F2 G2) E2 | F4 d2 | c4 e2 | A4 B2 | %6
w: Herr, dei- ne|Gü- te|reicht _ so|weit, so|weit, so|weit der|
"^Vom Chor wiederholt" (E2 A2) ^G2 | A4 z2 ::"^Einzelne" A2 A2 A2 | A4 ^G2 | ^G2 G2 G2 | %11
w: Him- * mel|ist,|und dei- ne|Wahr- heit,|und dei- ne|
 (=G2 F2) E2 | F2 F2 F2 | F2 G2 A2 | B4 A2 | (^G2 d2) G2 | (A2 ^G2 =G2) |"^Chor" F2 F2 F2 | A4 F2 | %19
w: Wahr- * heit,|und dei- ne|Wahr- heit so|weit die|Wol- * ken|gehn. _ _|Herr, dei- ne|Gü- te|
 (F2 G2) E2 | F4 d2 | c4 e2 | A4 d2 | F3 G EF |1 D4 z2 :|2[M:4/4] D2 F2 F2 F2 || (G6 E2 | %27
w: reicht _ so|weit, so|weit, so|weit der|Him- * mel *|ist.|ist. Hal- le- lu-|ja, _|
 F2) d2 d2 d2 | (e6 c2 | d2) d2 d2 d2 | d4 e4 | d4 c4 | d2 F2 F2 F2 | (G6 E2 | F2) d2 d2 d2 | %35
w: _ Hal- le- lu-|ja, _|_ Hal- le- lu-|ja, Hal-|le- lu-|ja, Hal- le- lu-|ja, _|_ Hal- le- lu-|
 (e6 c2 | d2) d2 d2 d2 | d4 e4 | d4 c4 | d4 z2 d2 | c6 c2 | d4 B4 | A4 c4 | !fermata!d8 |] %44
w: ja, _|_ Hal- le- lu-|ja, Hal-|le- lu-|ja, Hal-|le- lu-|ja, Hal-|le- lu-|ja!|
V:2
 D2 D2 D2 | F4 D2 | (D2 E2) C2 | D4 F2 | E4 G2 | F4 D2 | C4 D2 | C4 x2 :: C2 C2 C2 | D4 D2 | %10
 D2 D2 D2 | (E2 D2) C2 | D2 D2 D2 | D2 D2 D2 | D4 D2 | D4 D2 | (C2 D2 E2) | D2 D2 D2 | F4 D2 | %19
 (D2 E2) C2 | D4 F2 | E4 G2 | (F2 E2) D2 | D4 C2 |1 D4 x2 :|2[M:4/4] D2 D2 D2 D2 || (E6 C2 | %27
 D2) F2 F2 F2 | (G6 E2 | F2) F2 G2 A2 | B4 G4 | F4 E4 | F2 D2 D2 D2 | (E6 C2 | D2) F2 F2 F2 | %35
 (G6 E2 | F2) F2 G2 A2 | B4 G4 | F4 E4 | F4 x2 F2 | E6 G2 | F4 G4 | F4 E4 | F8 |] %44
V:3
 A2 A2 A2 | A4 A2 | A4 A2 | A4 A2 | A4 A2 | (A2 d2) B2 | c4 B2 | A4 z2 :: A2 A2 A2 | B4 B2 | %10
w: Herr, dei- ne|Gü- te|reicht so|weit, so|weit, so|weit _ der|Him- mel|ist,|und dei- ne|Wahr- heit,|
 B2 B2 B2 | A4 A2 | A2 A2 A2 | A2 B2 A2 | G4 A2 | B4 B2 | (A2 B2 c2) | A2 A2 A2 | A4 A2 | A4 A2 | %20
w: und dei- ne|Wahr- heit,|und dei- ne|Wahr- heit so|weit die|Wol- ken|gehn. _ _|Herr, dei- ne|Gü- te|reicht so|
 A4 A2 | A4 A2 | (A2 G2) F2 | A4 G2 |1 F4 z2 :|2[M:4/4] F2 z2 z4 || z2 A2 A2 A2 | A2 z2 z4 | %28
w: weit, so|weit, so|weit _ der|Him- mel|ist.|ist.|Hal- le- lu-|ja,|
 z2 A2 A2 A2 | A2 A2 B2 A2 | G4 G4 | A4 A4 | A4 z4 | z2 A2 A2 A2 | A2 z2 z4 | z2 A2 A2 A2 | %36
w: Hal- le- lu-|ja, Hal- le- lu-|ja, Hal-|le- lu-|ja,|Hal- le- lu-|ja,|Hal- le- lu-|
 A2 A2 B2 A2 | G4 G4 | A4 A4 | A4 z2 A2 | A6 A2 | d4 d4 | A4 A4 | !fermata!A8 |] %44
w: ja, Hal- le- lu-|ja, Hal-|le- lu-|ja, Hal-|le- lu-|ja, Hal-|le- lu-|ja!|
V:4
 D,2 D,2 D,2 | D,4 D,2 | A,,4 A,,2 | D,4 D,2 | A,4 C,2 | D,4 D,2 | E,4 E,2 | A,,4 z2 :: z6 | z6 | %10
 z6 | z6 | z6 | z6 | z6 | z6 | z6 | D,2 D,2 D,2 | D,4 D,2 | A,,4 A,,2 | D,4 D,2 | A,4 C,2 | %22
 D,4 D,2 | A,,4 A,,2 |1 D,4 z2 :|2[M:4/4] D,2 z2 z4 || z2 A,,2 A,,2 A,,2 | D,2 z2 z4 | %28
 z2 A,,2 A,,2 A,,2 | D,2 D,2 D,2 D,2 | G,4 E,4 | A,4 A,,4 | D,4 z4 | z2 A,,2 A,,2 A,,2 | %34
 D,2 z2 z4 | z2 A,,2 A,,2 A,,2 | D,2 D,2 D,2 D,2 | G,4 E,4 | A,4 A,,4 | D,4 z2 D,2 | A,6 A,2 | %41
 B,4 G,4 | A,4 A,4 | !fermata!D,8 |] %44

